src/assets/seats/seat.svg

<svg width="24" height="22" viewBox="0 0 24 22" fill="none" xmlns="http://www.w3.org/2000/svg">
<path d="M19 0H5C3.6744 0.00158786 2.40356 0.528882 1.46622 1.46622C0.528882 2.40356 0.00158786 3.6744 0 5L0 13C0.00158786 14.3256 0.528882 15.5964 1.46622 16.5338C2.40356 17.4711 3.6744 17.9984 5 18H11V20H7C6.73478 20 6.48043 20.1054 6.29289 20.2929C6.10536 20.4804 6 20.7348 6 21C6 21.2652 6.10536 21.5196 6.29289 21.7071C6.48043 21.8946 6.73478 22 7 22H17C17.2652 22 17.5196 21.8946 17.7071 21.7071C17.8946 21.5196 18 21.2652 18 21C18 20.7348 17.8946 20.4804 17.7071 20.2929C17.5196 20.1054 17.2652 20 17 20H13V18H19C20.3256 17.9984 21.5964 17.4711 22.5338 16.5338C23.4711 15.5964 23.9984 14.3256 24 13V5C23.9984 3.6744 23.4711 2.40356 22.5338 1.46622C21.5964 0.528882 20.3256 0.00158786 19 0V0ZM5 2H19C19.7956 2 20.5587 2.31607 21.1213 2.87868C21.6839 3.44129 22 4.20435 22 5V12H2V5C2 4.20435 2.31607 3.44129 2.87868 2.87868C3.44129 2.31607 4.20435 2 5 2V2ZM19 16H5C4.38174 15.9974 3.77937 15.8039 3.2753 15.4459C2.77123 15.0879 2.39008 14.5829 2.184 14H21.816C21.6099 14.5829 21.2288 15.0879 20.7247 15.4459C20.2206 15.8039 19.6183 15.9974 19 16Z" fill="#374957"/>
</svg>

<svg xmlns="http://www.w3.org/2000/svg" width="24" height="22" fill="none"><path fill="#374957" d="M19 0H5a5.006 5.006 0 0 0-5 5v8a5.006 5.006 0 0 0 5 5h6v2H7a1 1 0 0 0 0 2h10a1 1 0 0 0 0-2h-4v-2h6a5.006 5.006 0 0 0 5-5V5a5.006 5.006 0 0 0-5-5M5 2h14a3 3 0 0 1 3 3v7H2V5a3 3 0 0 1 3-3m14 14H5a3 3 0 0 1-2.816-2h19.632A3 3 0 0 1 19 16"/></svg>
